X:2739
T:Huntsman's Chorus
O:england
C:Traditional
N:courtesy of Paul Setford's "Sing & Play" Vol. 1
M:4/4
L:1/8
K:G
D2|G2D2GABc|d4B4|A2d2A2d2|
BcBA G2D2|G2D2GABc|d4c4|BAGA B2A2|
G4-G2:|
|:A2|B3c B2A2|G4G4|c3d c2B2|
A2F2E2D2|G2D2GABc|d4c4|BAGA B2A2|
G4-G2:|


